X:1
T:Bezeichnung standardisiert: 4. Tanz in C - nach Drey\sser 1720;
T:Bezeichnung standardisiert: 4. Tanz in C - nach Drey\sser 1720;
T:4 [Dantz in C nach Johann Friedrich Drey\sser, 1720] In anderer Quelle: Le Tourbillon d'Amour - R. A. Feuillet 1706 (Anm. SW);
T:Urheber unbekannt Erstbeleg: 1706 (Datum in der schriftlichen Quelle)
C:Urheber unbekannt
C:Erstbeleg: 1706 (Datum in der schriftlichen Quelle)
%%score 1 2
L:1/8
M:2/2
K:C
V:1 treble 
V:2 bass 
V:1
 g4 g4 | gfga g4 | c2 c2 d2 e2 | f2 ed e2 c2 :: G2 G2 c2 c2 | d2 cd e2 c2 | g2 g2 agfe | d4 c4 :| %8
V:2
 !fermata!C,4 G,,3 A,, | B,,2 C,2 G,,4 | A,,2 A,,2 B,,2 C,2 | C,2 A,,2 G,,4 :: C,4 A,,4 | %5
 G,,4 C,4 | B,,4 C,2 F,,2 | G,,4 C,4 :| %8

